Modules/BetterCms.Module.Root/Scss/base_64/icons/cp-indicate-button.svg

<svg xmlns="http://www.w3.org/2000/svg" width="30" height="30" viewBox="0 0 30 30">
 <defs>
  <linearGradient id="0" gradientUnits="userSpaceOnUse" y1="30" x2="0">
   <stop stop-color="#555655"/>
   <stop offset="1" stop-color="#676767"/>
  </linearGradient>
 </defs>
 <g>
  <path fill="url(#0)" d="m0 0h30v30h-30z"/>
  <path d="m18.429 11.267l-4.572-2.573 1.584-2.696c0 0 1.358.173 2.543.839 1.098.618 2.029 1.733 2.029 1.733l-1.584 2.697m-5.839 9.789l-4.396 1.944-.185-4.521 4.927-8.316 4.58 2.576-4.926 8.317m-2.59-2.056c-.552 0-1 .448-1 1 0 .552.448 1 1 1 .552 0 1-.448 1-1 0-.552-.448-1-1-1" fill="#343434"/>
  <path d="m19.429 12.267l-4.572-2.573 1.584-2.696c0 0 1.358.173 2.543.839 1.098.618 2.029 1.733 2.029 1.733l-1.584 2.697m-5.839 9.789l-4.396 1.944-.185-4.521 4.927-8.316 4.58 2.576-4.926 8.317m-2.59-2.056c-.552 0-1 .448-1 1 0 .552.448 1 1 1 .552 0 1-.448 1-1 0-.552-.448-1-1-1" fill="#8b8c8b"/>
 </g>
</svg>

<svg xmlns="http://www.w3.org/2000/svg" xmlns:xlink="http://www.w3.org/1999/xlink" preserveAspectRatio="xMidYMid" width="30" height="30" viewBox="0 0 30 30">
  <defs>
    <style>
      .cls-1 {
        fill: url(#linear-gradient-1);
      }

      .cls-2 {
        fill: #343434;
      }

      .cls-2, .cls-3 {
        fill-rule: evenodd;
      }

      .cls-3 {
        fill: #8b8c8b;
      }
    </style>

    <linearGradient id="linear-gradient-1" gradientUnits="userSpaceOnUse" x1="15" y1="30" x2="15">
      <stop offset="0" stop-color="#555655"/>
      <stop offset="1" stop-color="#676767"/>
    </linearGradient>
  </defs>
  <g>
    <rect width="30" height="30" class="cls-1"/>
    <path d="M18.429,11.267 L13.857,8.694 L15.441,5.998 C15.441,5.998 16.799,6.171 17.984,6.837 C19.082,7.455 20.013,8.570 20.013,8.570 L18.429,11.267 ZM12.590,21.056 L8.194,23.000 L8.009,18.479 L12.936,10.163 L17.516,12.739 L12.590,21.056 ZM10.000,19.000 C9.448,19.000 9.000,19.448 9.000,20.000 C9.000,20.552 9.448,21.000 10.000,21.000 C10.552,21.000 11.000,20.552 11.000,20.000 C11.000,19.448 10.552,19.000 10.000,19.000 Z" class="cls-2"/>
    <path d="M19.429,12.267 L14.857,9.694 L16.441,6.998 C16.441,6.998 17.799,7.171 18.984,7.837 C20.082,8.455 21.013,9.570 21.013,9.570 L19.429,12.267 ZM13.590,22.056 L9.194,24.000 L9.009,19.479 L13.936,11.163 L18.516,13.739 L13.590,22.056 ZM11.000,20.000 C10.448,20.000 10.000,20.448 10.000,21.000 C10.000,21.552 10.448,22.000 11.000,22.000 C11.552,22.000 12.000,21.552 12.000,21.000 C12.000,20.448 11.552,20.000 11.000,20.000 Z" class="cls-3"/>
  </g>
</svg>
